X:1
T:Twenty Tons of TNT
M:2/4
L:1/8
K:C
 CE EC| DC A, G,| CC CC| CB, C z| CE EC| DC A, G,| C/2 C3/2 C/2 C3/2|\
 CB, C z| FA AF| EG EC| FA AF| GG G2| cA GE| DC A,/2 G,3/2| CC CC|\
 CB, C2| z| z z| CE EC| DCA,-G,| C3/2 C/2 CC| CB, C2| CE EC| DC A, G,|\
 C3/2 C/2 CC| CB, C2| FA AF| EG EC| FA AF| GG G2| c3/2 A/2 GE| DC A, G,|\
 C3/2 C/2 CC| CB, C2|

